!!!Melodie: eigene
!!!Typ: Lied
**kern	**silbe	**silbe	**silbe	**silbe	**silbe	**silbe	**silbe	**silbe	**silbe	**silbe
*clefG2	*lang:DE	*lang:DE	*lang:DE	*lang:DE	*lang:DE	*lang:DE	*lang:DE	*lang:DE	*lang:DE	*lang:DE
*k[f#]	*	*	*	*	*	*	*	*	*	*
*M4/4	*	*	*	*	*	*	*	*	*	*
*met(c)	*	*	*	*	*	*	*	*	*	*
4r	%	%	%	%	%	%	%	%	%	%
4g	Aus	Dein	Bei	Es	Da#	Auf	Und	Doch	Ob	Sein’
4f#	tie#	gnä#	dir	ist	#rum	in	ob	soll	bei	Hand
4g	#fer	#dig'	gilt	doch	auf	mein	es	mein	uns	zu
=	=	=	=	=	=	=	=	=	=	=
4a	Not	Ohr	nichts	un#	Gott	Herz	währt	Herz	ist	hel#
4a	schrei	neig'	denn	#ser	will	soll	bis	an	der	#fen
4g	ich	her'	Gnad'	Tun	hof#	las#	in	Got#	Sün#	hat
4a	zu	zu	und	um#	#fen	#sen	die	#tes	#den	kein
=	=	=	=	=	=	=	=	=	=	=
4;b	dir,	mir	Gunst,	#sonst,	ich,	sich,	Nacht,	Macht,	viel,	Ziel,
4cc	Herr	und	die	auch	auf	und	und	ver#	bei	wie
4b	Gott!	mei#	Sün#	in	mein	sei#	wi#	#zwei#	Gott	groß
4a	Er#	#ner	#de	dem	Ver#	#ner	#der	#feln	ist	auch
=	=	=	=	=	=	=	=	=	=	=
8Lg	#hör	Bitt'	zu	bes#	#dienst	Gü#	an	nicht	viel	sei
8Jf#	|	|	|	|	|	|	|	|	|	|
4g	mein	sie	ver#	#ten	nicht	#te	den	noch	mehr	der
2a	Ru#	öf#	#ge#	Le#	bau#	trau#	Mor#	sor#	Gna#	Scha#
=	=	=	=	=	=	=	=	=	=	=
1;g	#fen:	#fen,	#ben,	#ben:	#en:	#en,	#gen,	#gen,	#den,	#den,
=:|	=	=	=	=	=	=	=	=	=	=
4r	.	%	.	%	.	%	.	%	.	%
4g	.	denn	.	vor	.	die	.	so	.	er
4a	.	so	.	dir	.	mir	.	tu	.	ist
4cc	.	du	.	nie#	.	zu#	.	Is#	.	al#
=	=	=	=	=	=	=	=	=	=	=
4b	.	wilt	.	#mand	.	#sagt	.	#ra#	.	#lein
4g	.	das	.	sich	.	sein	.	#el	.	der
4a	.	se#	.	rüh#	.	wer#	.	rech#	.	gu#
4f#	.	#hen	.	#men	.	#tes	.	#ter	.	#te
=	=	=	=	=	=	=	=	=	=	=
4;e	.	an,	.	kann,	.	Wort:	.	Art,	.	Hirt’,
4f#	.	was	.	es	.	das	.	der	.	der
4d	.	Sünd'	.	muss	.	ist	.	aus	.	Is#
4d	.	und	.	dich	.	mein	.	dem	.	#ra#
=	=	=	=	=	=	=	=	=	=	=
4a	.	Un#	.	fürch#	.	Trost	.	Geist	.	#el
4b	.	#recht	.	#ten	.	und	.	er#	.	er#
4cc	.	ist	.	je#	.	treu#	.	#zeu#	.	#lö#
4a	.	ge#	.	#der#	.	#er	.	#get	.	#sen
=	=	=	=	=	=	=	=	=	=	=
4;g	.	#tan,	.	#mann,	.	Hort,	.	ward,	.	wird,
4dd	.	wer	.	und	.	des	.	und	.	aus
4b	.	kann,	.	dei#	.	will	.	sei#	.	sei#
4a	.	Herr,	.	#ner	.	ich	.	#nes	.	#nen
=	=	=	=	=	=	=	=	=	=	=
8Lg	.	vor	.	Gna#	.	all#	.	Gotts	.	Sün#
8Jf#	.	|	.	|	.	|	.	|	.	|
4g	.	dir	.	#den	.	#zeit	.	er#	.	#den
2a	.	blei#	.	le#	.	har#	.	#har#	.	al#
=	=	=	=	=	=	=	=	=	=	=
1;g	.	#ben?	.	#ben.	.	#ren.	.	#re.	.	#len.
==	==	==	==	==	==	==	==	==	==	==
*-	*-	*-	*-	*-	*-	*-	*-	*-	*-	*-
